4-binary/01-arraybuffer-binary-arrays/8bit-integer-257.svg

<?xml version="1.0" encoding="UTF-8"?>
<svg width="195px" height="145px" viewBox="0 0 195 145" version="1.1" xmlns="http://www.w3.org/2000/svg" xmlns:xlink="http://www.w3.org/1999/xlink">
    <!-- Generator: sketchtool 61.2 (101010) - https://sketch.com -->
    <title>8bit-integer-257.svg</title>
    <desc>Created with sketchtool.</desc>
    <g id="binary" stroke="none" stroke-width="1" fill="none" fill-rule="evenodd">
        <g id="8bit-integer-257.svg">
            <rect id="Rectangle-227-Copy" stroke="#E8C48E" stroke-width="2" fill="#FFF9EB" x="24" y="33" width="100" height="28"></rect>
            <path d="M14.332,49.848 L16.844,49.848 L16.844,41.432 L14.284,43.224 L13.66,42.312 L17.18,39.8 L18.076,39.8 L18.076,49.848 L20.54,49.848 L20.54,51 L14.332,51 L14.332,49.848 Z M25.78,45.4 C25.78,44.4933288 25.8599992,43.6800036 26.02,42.96 C26.1800008,42.2399964 26.4199984,41.6320025 26.74,41.136 C27.0600016,40.6399975 27.4653309,40.2613346 27.956,40 C28.4466691,39.7386654 29.0279966,39.608 29.7,39.608 C30.4146702,39.608 31.0199975,39.7359987 31.516,39.992 C32.0120025,40.2480013 32.4146651,40.6213309 32.724,41.112 C33.0333349,41.6026691 33.2573326,42.2079964 33.396,42.928 C33.5346674,43.6480036 33.604,44.4719954 33.604,45.4 C33.604,46.3066712 33.5240008,47.1199964 33.364,47.84 C33.2039992,48.5600036 32.9640016,49.1679975 32.644,49.664 C32.3239984,50.1600025 31.9186691,50.5386654 31.428,50.8 C30.9373309,51.0613346 30.3560034,51.192 29.684,51.192 C28.9799965,51.192 28.3800025,51.0506681 27.884,50.768 C27.3879975,50.4853319 26.9826682,50.0880026 26.668,49.576 C26.3533318,49.0639974 26.1266674,48.4533369 25.988,47.744 C25.8493326,47.0346631 25.78,46.2533376 25.78,45.4 Z M32.292,45.4 C32.292,44.8346638 32.2600003,44.2960026 32.196,43.784 L27.444,48.12 C27.6253342,48.728003 27.8973315,49.2133315 28.26,49.576 C28.6226685,49.9386685 29.0973304,50.12 29.684,50.12 C30.6226714,50.12 31.291998,49.7306706 31.692,48.952 C32.092002,48.1733294 32.292,46.9893413 32.292,45.4 Z M27.108,45.4 C27.108,45.666668 27.1159999,45.9226654 27.132,46.168 C27.1480001,46.4133346 27.1666666,46.6533322 27.188,46.888 L31.956,42.568 C31.7746658,41.9919971 31.5053351,41.533335 31.148,41.192 C30.7906649,40.850665 30.308003,40.68 29.7,40.68 C28.7506619,40.68 28.0813353,41.0719961 27.692,41.856 C27.3026647,42.6400039 27.108,43.8213254 27.108,45.4 Z M38.38,45.4 C38.38,44.4933288 38.4599992,43.6800036 38.62,42.96 C38.7800008,42.2399964 39.0199984,41.6320025 39.34,41.136 C39.6600016,40.6399975 40.0653309,40.2613346 40.556,40 C41.0466691,39.7386654 41.6279966,39.608 42.3,39.608 C43.0146702,39.608 43.6199975,39.7359987 44.116,39.992 C44.6120025,40.2480013 45.0146651,40.6213309 45.324,41.112 C45.6333349,41.6026691 45.8573326,42.2079964 45.996,42.928 C46.1346674,43.6480036 46.204,44.4719954 46.204,45.4 C46.204,46.3066712 46.1240008,47.1199964 45.964,47.84 C45.8039992,48.5600036 45.5640016,49.1679975 45.244,49.664 C44.9239984,50.1600025 44.5186691,50.5386654 44.028,50.8 C43.5373309,51.0613346 42.9560034,51.192 42.284,51.192 C41.5799965,51.192 40.9800025,51.0506681 40.484,50.768 C39.9879975,50.4853319 39.5826682,50.0880026 39.268,49.576 C38.9533318,49.0639974 38.7266674,48.4533369 38.588,47.744 C38.4493326,47.0346631 38.38,46.2533376 38.38,45.4 Z M44.892,45.4 C44.892,44.8346638 44.8600003,44.2960026 44.796,43.784 L40.044,48.12 C40.2253342,48.728003 40.4973315,49.2133315 40.86,49.576 C41.2226685,49.9386685 41.6973304,50.12 42.284,50.12 C43.2226714,50.12 43.891998,49.7306706 44.292,48.952 C44.692002,48.1733294 44.892,46.9893413 44.892,45.4 Z M39.708,45.4 C39.708,45.666668 39.7159999,45.9226654 39.732,46.168 C39.7480001,46.4133346 39.7666666,46.6533322 39.788,46.888 L44.556,42.568 C44.3746658,41.9919971 44.1053351,41.533335 43.748,41.192 C43.3906649,40.850665 42.908003,40.68 42.3,40.68 C41.3506619,40.68 40.6813353,41.0719961 40.292,41.856 C39.9026647,42.6400039 39.708,43.8213254 39.708,45.4 Z M50.98,45.4 C50.98,44.4933288 51.0599992,43.6800036 51.22,42.96 C51.3800008,42.2399964 51.6199984,41.6320025 51.94,41.136 C52.2600016,40.6399975 52.6653309,40.2613346 53.156,40 C53.6466691,39.7386654 54.2279966,39.608 54.9,39.608 C55.6146702,39.608 56.2199975,39.7359987 56.716,39.992 C57.2120025,40.2480013 57.6146651,40.6213309 57.924,41.112 C58.2333349,41.6026691 58.4573326,42.2079964 58.596,42.928 C58.7346674,43.6480036 58.804,44.4719954 58.804,45.4 C58.804,46.3066712 58.7240008,47.1199964 58.564,47.84 C58.4039992,48.5600036 58.1640016,49.1679975 57.844,49.664 C57.5239984,50.1600025 57.1186691,50.5386654 56.628,50.8 C56.1373309,51.0613346 55.5560034,51.192 54.884,51.192 C54.1799965,51.192 53.5800025,51.0506681 53.084,50.768 C52.5879975,50.4853319 52.1826682,50.0880026 51.868,49.576 C51.5533318,49.0639974 51.3266674,48.4533369 51.188,47.744 C51.0493326,47.0346631 50.98,46.2533376 50.98,45.4 Z M57.492,45.4 C57.492,44.8346638 57.4600003,44.2960026 57.396,43.784 L52.644,48.12 C52.8253342,48.728003 53.0973315,49.2133315 53.46,49.576 C53.8226685,49.9386685 54.2973304,50.12 54.884,50.12 C55.8226714,50.12 56.491998,49.7306706 56.892,48.952 C57.292002,48.1733294 57.492,46.9893413 57.492,45.4 Z M52.308,45.4 C52.308,45.666668 52.3159999,45.9226654 52.332,46.168 C52.3480001,46.4133346 52.3666666,46.6533322 52.388,46.888 L57.156,42.568 C56.9746658,41.9919971 56.7053351,41.533335 56.348,41.192 C55.9906649,40.850665 55.508003,40.68 54.9,40.68 C53.9506619,40.68 53.2813353,41.0719961 52.892,41.856 C52.5026647,42.6400039 52.308,43.8213254 52.308,45.4 Z M63.58,45.4 C63.58,44.4933288 63.6599992,43.6800036 63.82,42.96 C63.9800008,42.2399964 64.2199984,41.6320025 64.54,41.136 C64.8600016,40.6399975 65.2653309,40.2613346 65.756,40 C66.2466691,39.7386654 66.8279966,39.608 67.5,39.608 C68.2146702,39.608 68.8199975,39.7359987 69.316,39.992 C69.8120025,40.2480013 70.2146651,40.6213309 70.524,41.112 C70.8333349,41.6026691 71.0573326,42.2079964 71.196,42.928 C71.3346674,43.6480036 71.404,44.4719954 71.404,45.4 C71.404,46.3066712 71.3240008,47.1199964 71.164,47.84 C71.0039992,48.5600036 70.7640016,49.1679975 70.444,49.664 C70.1239984,50.1600025 69.7186691,50.5386654 69.228,50.8 C68.7373309,51.0613346 68.1560034,51.192 67.484,51.192 C66.7799965,51.192 66.1800025,51.0506681 65.684,50.768 C65.1879975,50.4853319 64.7826682,50.0880026 64.468,49.576 C64.1533318,49.0639974 63.9266674,48.4533369 63.788,47.744 C63.6493326,47.0346631 63.58,46.2533376 63.58,45.4 Z M70.092,45.4 C70.092,44.8346638 70.0600003,44.2960026 69.996,43.784 L65.244,48.12 C65.4253342,48.728003 65.6973315,49.2133315 66.06,49.576 C66.4226685,49.9386685 66.8973304,50.12 67.484,50.12 C68.4226714,50.12 69.091998,49.7306706 69.492,48.952 C69.892002,48.1733294 70.092,46.9893413 70.092,45.4 Z M64.908,45.4 C64.908,45.666668 64.9159999,45.9226654 64.932,46.168 C64.9480001,46.4133346 64.9666666,46.6533322 64.988,46.888 L69.756,42.568 C69.5746658,41.9919971 69.3053351,41.533335 68.948,41.192 C68.5906649,40.850665 68.108003,40.68 67.5,40.68 C66.5506619,40.68 65.8813353,41.0719961 65.492,41.856 C65.1026647,42.6400039 64.908,43.8213254 64.908,45.4 Z M76.18,45.4 C76.18,44.4933288 76.2599992,43.6800036 76.42,42.96 C76.5800008,42.2399964 76.8199984,41.6320025 77.14,41.136 C77.4600016,40.6399975 77.8653309,40.2613346 78.356,40 C78.8466691,39.7386654 79.4279966,39.608 80.1,39.608 C80.8146702,39.608 81.4199975,39.7359987 81.916,39.992 C82.4120025,40.2480013 82.8146651,40.6213309 83.124,41.112 C83.4333349,41.6026691 83.6573326,42.2079964 83.796,42.928 C83.9346674,43.6480036 84.004,44.4719954 84.004,45.4 C84.004,46.3066712 83.9240008,47.1199964 83.764,47.84 C83.6039992,48.5600036 83.3640016,49.1679975 83.044,49.664 C82.7239984,50.1600025 82.3186691,50.5386654 81.828,50.8 C81.3373309,51.0613346 80.7560034,51.192 80.084,51.192 C79.3799965,51.192 78.7800025,51.0506681 78.284,50.768 C77.7879975,50.4853319 77.3826682,50.0880026 77.068,49.576 C76.7533318,49.0639974 76.5266674,48.4533369 76.388,47.744 C76.2493326,47.0346631 76.18,46.2533376 76.18,45.4 Z M82.692,45.4 C82.692,44.8346638 82.6600003,44.2960026 82.596,43.784 L77.844,48.12 C78.0253342,48.728003 78.2973315,49.2133315 78.66,49.576 C79.0226685,49.9386685 79.4973304,50.12 80.084,50.12 C81.0226714,50.12 81.691998,49.7306706 82.092,48.952 C82.492002,48.1733294 82.692,46.9893413 82.692,45.4 Z M77.508,45.4 C77.508,45.666668 77.5159999,45.9226654 77.532,46.168 C77.5480001,46.4133346 77.5666666,46.6533322 77.588,46.888 L82.356,42.568 C82.1746658,41.9919971 81.9053351,41.533335 81.548,41.192 C81.1906649,40.850665 80.708003,40.68 80.1,40.68 C79.1506619,40.68 78.4813353,41.0719961 78.092,41.856 C77.7026647,42.6400039 77.508,43.8213254 77.508,45.4 Z M88.78,45.4 C88.78,44.4933288 88.8599992,43.6800036 89.02,42.96 C89.1800008,42.2399964 89.4199984,41.6320025 89.74,41.136 C90.0600016,40.6399975 90.4653309,40.2613346 90.956,40 C91.4466691,39.7386654 92.0279966,39.608 92.7,39.608 C93.4146702,39.608 94.0199975,39.7359987 94.516,39.992 C95.0120025,40.2480013 95.4146651,40.6213309 95.724,41.112 C96.0333349,41.6026691 96.2573326,42.2079964 96.396,42.928 C96.5346674,43.6480036 96.604,44.4719954 96.604,45.4 C96.604,46.3066712 96.5240008,47.1199964 96.364,47.84 C96.2039992,48.5600036 95.9640016,49.1679975 95.644,49.664 C95.3239984,50.1600025 94.9186691,50.5386654 94.428,50.8 C93.9373309,51.0613346 93.3560034,51.192 92.684,51.192 C91.9799965,51.192 91.3800025,51.0506681 90.884,50.768 C90.3879975,50.4853319 89.9826682,50.0880026 89.668,49.576 C89.3533318,49.0639974 89.1266674,48.4533369 88.988,47.744 C88.8493326,47.0346631 88.78,46.2533376 88.78,45.4 Z M95.292,45.4 C95.292,44.8346638 95.2600003,44.2960026 95.196,43.784 L90.444,48.12 C90.6253342,48.728003 90.8973315,49.2133315 91.26,49.576 C91.6226685,49.9386685 92.0973304,50.12 92.684,50.12 C93.6226714,50.12 94.291998,49.7306706 94.692,48.952 C95.092002,48.1733294 95.292,46.9893413 95.292,45.4 Z M90.108,45.4 C90.108,45.666668 90.1159999,45.9226654 90.132,46.168 C90.1480001,46.4133346 90.1666666,46.6533322 90.188,46.888 L94.956,42.568 C94.7746658,41.9919971 94.5053351,41.533335 94.148,41.192 C93.7906649,40.850665 93.308003,40.68 92.7,40.68 C91.7506619,40.68 91.0813353,41.0719961 90.692,41.856 C90.3026647,42.6400039 90.108,43.8213254 90.108,45.4 Z M101.38,45.4 C101.38,44.4933288 101.459999,43.6800036 101.62,42.96 C101.780001,42.2399964 102.019998,41.6320025 102.34,41.136 C102.660002,40.6399975 103.065331,40.2613346 103.556,40 C104.046669,39.7386654 104.627997,39.608 105.3,39.608 C106.01467,39.608 106.619998,39.7359987 107.116,39.992 C107.612002,40.2480013 108.014665,40.6213309 108.324,41.112 C108.633335,41.6026691 108.857333,42.2079964 108.996,42.928 C109.134667,43.6480036 109.204,44.4719954 109.204,45.4 C109.204,46.3066712 109.124001,47.1199964 108.964,47.84 C108.803999,48.5600036 108.564002,49.1679975 108.244,49.664 C107.923998,50.1600025 107.518669,50.5386654 107.028,50.8 C106.537331,51.0613346 105.956003,51.192 105.284,51.192 C104.579996,51.192 103.980002,51.0506681 103.484,50.768 C102.987998,50.4853319 102.582668,50.0880026 102.268,49.576 C101.953332,49.0639974 101.726667,48.4533369 101.588,47.744 C101.449333,47.0346631 101.38,46.2533376 101.38,45.4 Z M107.892,45.4 C107.892,44.8346638 107.86,44.2960026 107.796,43.784 L103.044,48.12 C103.225334,48.728003 103.497332,49.2133315 103.86,49.576 C104.222668,49.9386685 104.69733,50.12 105.284,50.12 C106.222671,50.12 106.891998,49.7306706 107.292,48.952 C107.692002,48.1733294 107.892,46.9893413 107.892,45.4 Z M102.708,45.4 C102.708,45.666668 102.716,45.9226654 102.732,46.168 C102.748,46.4133346 102.766667,46.6533322 102.788,46.888 L107.556,42.568 C107.374666,41.9919971 107.105335,41.533335 106.748,41.192 C106.390665,40.850665 105.908003,40.68 105.3,40.68 C104.350662,40.68 103.681335,41.0719961 103.292,41.856 C102.902665,42.6400039 102.708,43.8213254 102.708,45.4 Z M115.132,49.848 L117.644,49.848 L117.644,41.432 L115.084,43.224 L114.46,42.312 L117.98,39.8 L118.876,39.8 L118.876,49.848 L121.34,49.848 L121.34,51 L115.132,51 L115.132,49.848 Z" id="100000001" fill="#000000" fill-rule="nonzero"></path>
            <text id="8-bit-integer" font-family="Helvetica" font-size="16" font-weight="normal" fill="#000000">
                <tspan x="33.2539062" y="23">8-bit integer</tspan>
            </text>
            <text id="257" font-family="Helvetica" font-size="16" font-weight="normal" fill="#9B9B9B">
                <tspan x="134.152344" y="48">257</tspan>
            </text>
        </g>
    </g>
</svg>

<svg xmlns="http://www.w3.org/2000/svg" width="195" height="145" viewBox="0 0 195 145"><defs><style>@import url(https://fonts.googleapis.com/css?family=Open+Sans:bold,italic,bolditalic%7CPT+Mono);@font-face{font-family:&apos;PT Mono&apos;;font-weight:700;font-style:normal;src:local(&apos;PT MonoBold&apos;),url(/font/PTMonoBold.woff2) format(&apos;woff2&apos;),url(/font/PTMonoBold.woff) format(&apos;woff&apos;),url(/font/PTMonoBold.ttf) format(&apos;truetype&apos;)}</style></defs><g id="binary" fill="none" fill-rule="evenodd" stroke="none" stroke-width="1"><g id="8bit-integer-257.svg"><path id="Rectangle-227-Copy" fill="#FBF2EC" stroke="#DBAF88" stroke-width="2" d="M24 33h100v28H24z"/><path id="100000001" fill="#181717" fill-rule="nonzero" d="M14.332 49.848h2.512v-8.416l-2.56 1.792-.624-.912 3.52-2.512h.896v10.048h2.464V51h-6.208v-1.152zM25.78 45.4c0-.907.08-1.72.24-2.44.16-.72.4-1.328.72-1.824.32-.496.725-.875 1.216-1.136.49-.261 1.072-.392 1.744-.392.715 0 1.32.128 1.816.384s.899.63 1.208 1.12c.31.49.533 1.096.672 1.816s.208 1.544.208 2.472c0 .907-.08 1.72-.24 2.44-.16.72-.4 1.328-.72 1.824-.32.496-.725.875-1.216 1.136-.49.261-1.072.392-1.744.392-.704 0-1.304-.141-1.8-.424a3.379 3.379 0 01-1.216-1.192c-.315-.512-.541-1.123-.68-1.832-.139-.71-.208-1.49-.208-2.344zm6.512 0c0-.565-.032-1.104-.096-1.616l-4.752 4.336c.181.608.453 1.093.816 1.456.363.363.837.544 1.424.544.939 0 1.608-.39 2.008-1.168.4-.779.6-1.963.6-3.552zm-5.184 0c0 .267.008.523.024.768s.035.485.056.72l4.768-4.32c-.181-.576-.45-1.035-.808-1.376-.357-.341-.84-.512-1.448-.512-.95 0-1.619.392-2.008 1.176-.39.784-.584 1.965-.584 3.544zm11.272 0c0-.907.08-1.72.24-2.44.16-.72.4-1.328.72-1.824.32-.496.725-.875 1.216-1.136.49-.261 1.072-.392 1.744-.392.715 0 1.32.128 1.816.384s.899.63 1.208 1.12c.31.49.533 1.096.672 1.816s.208 1.544.208 2.472c0 .907-.08 1.72-.24 2.44-.16.72-.4 1.328-.72 1.824-.32.496-.725.875-1.216 1.136-.49.261-1.072.392-1.744.392-.704 0-1.304-.141-1.8-.424a3.379 3.379 0 01-1.216-1.192c-.315-.512-.541-1.123-.68-1.832-.139-.71-.208-1.49-.208-2.344zm6.512 0c0-.565-.032-1.104-.096-1.616l-4.752 4.336c.181.608.453 1.093.816 1.456.363.363.837.544 1.424.544.939 0 1.608-.39 2.008-1.168.4-.779.6-1.963.6-3.552zm-5.184 0c0 .267.008.523.024.768s.035.485.056.72l4.768-4.32c-.181-.576-.45-1.035-.808-1.376-.357-.341-.84-.512-1.448-.512-.95 0-1.619.392-2.008 1.176-.39.784-.584 1.965-.584 3.544zm11.272 0c0-.907.08-1.72.24-2.44.16-.72.4-1.328.72-1.824.32-.496.725-.875 1.216-1.136.49-.261 1.072-.392 1.744-.392.715 0 1.32.128 1.816.384s.899.63 1.208 1.12c.31.49.533 1.096.672 1.816s.208 1.544.208 2.472c0 .907-.08 1.72-.24 2.44-.16.72-.4 1.328-.72 1.824-.32.496-.725.875-1.216 1.136-.49.261-1.072.392-1.744.392-.704 0-1.304-.141-1.8-.424a3.379 3.379 0 01-1.216-1.192c-.315-.512-.541-1.123-.68-1.832-.139-.71-.208-1.49-.208-2.344zm6.512 0c0-.565-.032-1.104-.096-1.616l-4.752 4.336c.181.608.453 1.093.816 1.456.363.363.837.544 1.424.544.939 0 1.608-.39 2.008-1.168.4-.779.6-1.963.6-3.552zm-5.184 0c0 .267.008.523.024.768s.035.485.056.72l4.768-4.32c-.181-.576-.45-1.035-.808-1.376-.357-.341-.84-.512-1.448-.512-.95 0-1.619.392-2.008 1.176-.39.784-.584 1.965-.584 3.544zm11.272 0c0-.907.08-1.72.24-2.44.16-.72.4-1.328.72-1.824.32-.496.725-.875 1.216-1.136.49-.261 1.072-.392 1.744-.392.715 0 1.32.128 1.816.384s.899.63 1.208 1.12c.31.49.533 1.096.672 1.816s.208 1.544.208 2.472c0 .907-.08 1.72-.24 2.44-.16.72-.4 1.328-.72 1.824-.32.496-.725.875-1.216 1.136-.49.261-1.072.392-1.744.392-.704 0-1.304-.141-1.8-.424a3.379 3.379 0 01-1.216-1.192c-.315-.512-.541-1.123-.68-1.832-.139-.71-.208-1.49-.208-2.344zm6.512 0c0-.565-.032-1.104-.096-1.616l-4.752 4.336c.181.608.453 1.093.816 1.456.363.363.837.544 1.424.544.939 0 1.608-.39 2.008-1.168.4-.779.6-1.963.6-3.552zm-5.184 0c0 .267.008.523.024.768s.035.485.056.72l4.768-4.32c-.181-.576-.45-1.035-.808-1.376-.357-.341-.84-.512-1.448-.512-.95 0-1.619.392-2.008 1.176-.39.784-.584 1.965-.584 3.544zm11.272 0c0-.907.08-1.72.24-2.44.16-.72.4-1.328.72-1.824.32-.496.725-.875 1.216-1.136.49-.261 1.072-.392 1.744-.392.715 0 1.32.128 1.816.384s.899.63 1.208 1.12c.31.49.533 1.096.672 1.816s.208 1.544.208 2.472c0 .907-.08 1.72-.24 2.44-.16.72-.4 1.328-.72 1.824-.32.496-.725.875-1.216 1.136-.49.261-1.072.392-1.744.392-.704 0-1.304-.141-1.8-.424a3.379 3.379 0 01-1.216-1.192c-.315-.512-.541-1.123-.68-1.832-.139-.71-.208-1.49-.208-2.344zm6.512 0c0-.565-.032-1.104-.096-1.616l-4.752 4.336c.181.608.453 1.093.816 1.456.363.363.837.544 1.424.544.939 0 1.608-.39 2.008-1.168.4-.779.6-1.963.6-3.552zm-5.184 0c0 .267.008.523.024.768s.035.485.056.72l4.768-4.32c-.181-.576-.45-1.035-.808-1.376-.357-.341-.84-.512-1.448-.512-.95 0-1.619.392-2.008 1.176-.39.784-.584 1.965-.584 3.544zm11.272 0c0-.907.08-1.72.24-2.44.16-.72.4-1.328.72-1.824.32-.496.725-.875 1.216-1.136.49-.261 1.072-.392 1.744-.392.715 0 1.32.128 1.816.384s.899.63 1.208 1.12c.31.49.533 1.096.672 1.816s.208 1.544.208 2.472c0 .907-.08 1.72-.24 2.44-.16.72-.4 1.328-.72 1.824-.32.496-.725.875-1.216 1.136-.49.261-1.072.392-1.744.392-.704 0-1.304-.141-1.8-.424a3.379 3.379 0 01-1.216-1.192c-.315-.512-.541-1.123-.68-1.832-.139-.71-.208-1.49-.208-2.344zm6.512 0c0-.565-.032-1.104-.096-1.616l-4.752 4.336c.181.608.453 1.093.816 1.456.363.363.837.544 1.424.544.939 0 1.608-.39 2.008-1.168.4-.779.6-1.963.6-3.552zm-5.184 0c0 .267.008.523.024.768s.035.485.056.72l4.768-4.32c-.181-.576-.45-1.035-.808-1.376-.357-.341-.84-.512-1.448-.512-.95 0-1.619.392-2.008 1.176-.39.784-.584 1.965-.584 3.544zm11.272 0c0-.907.08-1.72.24-2.44.16-.72.4-1.328.72-1.824.32-.496.725-.875 1.216-1.136.49-.261 1.072-.392 1.744-.392.715 0 1.32.128 1.816.384s.899.63 1.208 1.12c.31.49.533 1.096.672 1.816s.208 1.544.208 2.472c0 .907-.08 1.72-.24 2.44-.16.72-.4 1.328-.72 1.824-.32.496-.725.875-1.216 1.136-.49.261-1.072.392-1.744.392-.704 0-1.304-.141-1.8-.424a3.379 3.379 0 01-1.216-1.192c-.315-.512-.541-1.123-.68-1.832-.139-.71-.208-1.49-.208-2.344zm6.512 0c0-.565-.032-1.104-.096-1.616l-4.752 4.336c.181.608.453 1.093.816 1.456.363.363.837.544 1.424.544.939 0 1.608-.39 2.008-1.168.4-.779.6-1.963.6-3.552zm-5.184 0c0 .267.008.523.024.768s.035.485.056.72l4.768-4.32c-.181-.576-.45-1.035-.808-1.376-.357-.341-.84-.512-1.448-.512-.95 0-1.619.392-2.008 1.176-.39.784-.584 1.965-.584 3.544zm12.424 4.448h2.512v-8.416l-2.56 1.792-.624-.912 3.52-2.512h.896v10.048h2.464V51h-6.208v-1.152z"/><text id="8-bit-integer" fill="#181717" font-family="OpenSans-Regular, Open Sans" font-size="16" font-weight="normal"><tspan x="30.141" y="25">8-bit integer</tspan></text><text id="257" fill="#7E7C7B" font-family="OpenSans-Regular, Open Sans" font-size="16" font-weight="normal"><tspan x="133.777" y="50">257</tspan></text></g></g></svg>
